X: 34637
T: Road To Ballymac, The
R: reel
M: 4/4
K: Gmajor
|:DGGG BAGA|Bdd^c d2de|gddd ^cddB|e2dB ABGE|
DGGG BAGA|Bdde d2de|gdde d2dB|AGFA G3G:|
|:Bdd/d/d edBd|eggf gfag|bgag eddB|eBdB AGEG|
Bddd edBd|eggf g2ag|bgaf eddB|AGAB G3G:|

